X:1
T:Danza del hada de azúcar
T:Violín (PI)
T:Danza del Hada de Azúcar
T:Tchaikovsky
T:Copyright © 
T:Copyright © 
C:El Cascanueces-Tchaikovsky
Z:Score
Z:Copyright ©
L:1/8
Q:1/4=90
M:4/4
K:G
V:1 treble nm="Violín 1" snm="Vln. 1"
V:1
"^INTRO" E2 E2 E2 F2 | E2 G2 E2 A2 | E2 E2 E2 F2 | E2 G2 E2 A2 ||"^A" E2 G2 E2 A2 | E2 E2 D2 D2 | %6
w: mi mi mi fa#|mi sol mi sol|mi mi mi fa#|mi sol mi la|mi sol mi la|mi mi re re|
 E2 E2 E2 E2 | E2 A2 G2 z2 |"^B" z2 E2 G2 F2 | G2 E2 G2 G2 | F2 F2 E2 E2 | F2 E2 F2 z2 | %12
w: mi mi mi mi|mi la sol|mi sol fa#|sol mi sol sol|fa# fa# mi mi|fa# mi fa#|
"^C" E2 G2 E2 A2 | E2 E2 D2 D2 | E2 E2 E2 E2 | E2 A2 G2 z2 |"^D" F2 E2 E2 F2 | E2 D2 D2 E2 | %18
w: mi sol mi la|mi mi re re|mi mi mi mi|mi la sol|fa# mi mi fa#|mi re re mi|
 D2 D2 D2 D2 | D2 D2 D2 D2 |"^E" B8 | B8 | B8 | B8 | B8 | B8 | B8 | A8 |"^F" B8 | B8 | B8 | B8 | %32
w: re re re re|re re re re|si|si|si|si|si|si|si|la|si|si|si|si|
"^G" E2 G2 E2 A2 | E2 E2 D2 D2 | E2 E2 E2 E2 | E2 A2 G2 z2 |"^H" z2 E2 G2 F2 | G2 E2 G2 G2 | %38
w: mi sol mi la|mi mi re re|mi mi mi mi|mi la sol|mi sol fa#|sol mi sol sol|
 F2 F2 E2 E2 | F2 E2 F2 z2 |"^I" E2 G2 E2 A2 | E2 E2 D2 D2 | E2 E2 E2 E2 | E2 A2 G2 z2 | %44
w: fa# fa# mi mi|fa# mi fa#|mi sol mi la|mi mi re re|mi mi mi mi|mi la sol|
"^J" F2 E2 E2 F2 | E2 D2 D2 E2 | D2 D2 D2 D2 | z2 B2 B2 z2 |] %48
w: fa# mi mi fa#|mi re re mi|re re re re|si si|

